views/1/public/assets/pochtabank.svg

<svg fill="none" height="20" viewBox="0 0 20 20" width="20" xmlns="http://www.w3.org/2000/svg"><path d="m10 20c5.5228 0 10-4.4772 10-10 0-5.52285-4.4772-10-10-10-5.52285 0-10 4.47715-10 10 0 5.5228 4.47715 10 10 10z" fill="#cc003d"/><g clip-rule="evenodd" fill="#fff" fill-rule="evenodd"><path d="m4.45703 6.00317v9.00003h1.54278v-7.5033h1.91195v7.5033h1.54527v-9.00003z"/><path d="m13.5541 13.6099c-.1488 0-.523-.0372-.523-.0372v-1.7571-.1842-1.2273s.1203-.0305.2519-.0305c.7767 0 1.6947-.0491 1.6947 1.6165 0 1.5271-1.0087 1.6198-1.4236 1.6198zm.1855-4.66434c-.2638 0-.4982.00679-.7085.01723v-1.46611h2.7478v-1.49668h-4.2789v1.49668 7.50332h.1037 2.2203c2.317 0 2.676-2.2265 2.676-3.0506 0-.9754-.3569-3.00384-2.7604-3.00384z"/></g></svg>

<svg width="20" height="20" viewBox="0 0 20 20" fill="none" xmlns="http://www.w3.org/2000/svg">
<path d="M10 20C15.5228 20 20 15.5228 20 10C20 4.47715 15.5228 0 10 0C4.47715 0 0 4.47715 0 10C0 15.5228 4.47715 20 10 20Z" fill="#CC003D"/>
<path fill-rule="evenodd" clip-rule="evenodd" d="M4.45703 6.00317V15.0032H5.99981V7.4999H7.91176V15.0032H9.45703V6.00317H4.45703Z" fill="white"/>
<path fill-rule="evenodd" clip-rule="evenodd" d="M13.5541 13.6099C13.4053 13.6099 13.0311 13.5727 13.0311 13.5727V11.8156V11.6314V10.4041C13.0311 10.4041 13.1514 10.3736 13.283 10.3736C14.0597 10.3736 14.9777 10.3245 14.9777 11.9901C14.9777 13.5172 13.969 13.6099 13.5541 13.6099ZM13.7396 8.94556C13.4758 8.94556 13.2414 8.95235 13.0311 8.96279V7.49668H15.7789V6H11.5V7.49668V15H11.6037H13.824C16.141 15 16.5 12.7735 16.5 11.9494C16.5 10.974 16.1431 8.94556 13.7396 8.94556Z" fill="white"/>
</svg>
